X:1
T:Guisborough, 77.77
T:Guisborough, 77.77
T:C. T. Bowen (1833-?)
T:Public Domain Courtesy of the Cyber Hymnal™
C:C. T. Bowen (1833-?)
Z:Public Domain
Z:Courtesy of the Cyber Hymnal™
%%score 1 ( 2 3 )
L:1/8
Q:1/4=110
M:4/4
K:F
V:1 treble 
V:2 bass 
V:3 bass 
V:1
 [CF]3 [B,F] [A,F]2 [DF]2 | [CF]2 [B,F]2 [A,F]4 | [EG]3 [EG] [FG]2 [EG]2 | [DG]2 [DG]2 [EG]4 | %4
 [FA]3 [FA] [FA]2 [FA]2 | [GA]2 [FA]2 [EA]4 | [FA]3 [_EA] [DA]2 [DG]2 | [CF]2 [CE]2 [CF]4 |] %8
V:2
 [F,A,]3 [G,B,] [A,C]2 [B,D]2 | A,2 [G,B,]2 [F,C]4 | [C,C]3 [C,C] [=B,,D]2 [C,C]2 | %3
 [G,C]2 [G,=B,]2 [C,C]4 | [F,C]3 [F,C] [D,D]2 [D,D]2 | [^C,E]2 [D,D]2 (D2 =C2) | %6
 [F,C]3 [F,C] [B,,B,]2 [B,,B,]2 | [C,A,]2 [C,G,]2 [F,A,]4 |] %8
V:3
 x8 | A,2 x6 | x8 | x8 | x8 | x4 A,4 | x8 | x8 |] %8

